X:1
T:Go As You Please -- Hornpipe
R:hornpipe
B:Cole's 1000 Fiddle Tunes
M:C|
L:1/8
K:Bb
(ud>c)|B4-B>dc>B|c4-c>ed>c|\
B>df>=e g>fd>B|A>fa>g ((3fgf) ((3_edc)|
B4-B>dc>B|c4-c>ed>c|\
B>bf>d (3fgf (3edc|B2b2B2:|
|:uA>B|c>=Bc>A F>Ac>_e|d>^cd>B G>Bd>g|\
((3efg) (cd) g>ba>g|f>a"4"c'>a f>cA>B|
c>=Bc>A F>Ac>_e|d>^cd>B G>Bd>g|\
e>bg>e c>BG>E|(3FAB (3cde f2:|
